X: 396
M:C
L:1/8
K:A
e !segno!|: dcBA A2 ce | fece fgae | [1 dcBA A2 cA | BGEG Bcde :|
[2 agae dcBA | GEBG dBGB || A2 ce aece | aece aecA |
E2 GB ef^df | ef^df e=dcB | A2 ce aece | aece aecA |


